dist/assets/images/producersColor/Rosneft_Logo 3.svg

<svg width="113" height="59" viewBox="0 0 113 59" fill="none" xmlns="http://www.w3.org/2000/svg">
<path fill-rule="evenodd" clip-rule="evenodd" d="M43.0798 44.073V43.059H40.5355V44.073H40.2383V41.8975H40.5355V42.8408H43.0798V41.8975H43.3735V44.073H43.0798Z" fill="#201C26"/>
<path fill-rule="evenodd" clip-rule="evenodd" d="M44.3711 44.073V41.8975H46.9054V42.1144H44.6636V42.8408H46.8462V43.056H44.6636V43.8549H46.9054V44.073H44.3711Z" fill="#201C26"/>
<path fill-rule="evenodd" clip-rule="evenodd" d="M52.0457 43.1138V42.8428C52.0457 42.3256 51.7924 42.0653 50.9898 42.0653H50.1164V41.8721H49.8186V42.0653H48.9556C48.1478 42.0653 47.8945 42.2822 47.8945 42.8428V43.1138C47.8945 43.6672 48.1806 43.8586 48.9556 43.8586H49.8186V44.0726H50.1164V43.8586H50.9898C51.7602 43.8586 52.0457 43.6773 52.0457 43.1138ZM51.7473 43.1138C51.7473 43.5329 51.5474 43.6434 50.9898 43.6434H50.1164V42.2828H50.9898C51.5192 42.2828 51.7473 42.4088 51.7473 42.8309V43.1138ZM49.8186 43.6434H48.9556C48.3975 43.6434 48.1847 43.5329 48.1847 43.1108V42.8214C48.1847 42.4053 48.418 42.2828 48.9556 42.2828H49.8186V43.6434Z" fill="#201C26"/>
<path fill-rule="evenodd" clip-rule="evenodd" d="M54.3068 42.1144V44.073H54.6028V42.1144H56.0021V41.8975H52.918V42.1144H54.3068Z" fill="#201C26"/>
<path fill-rule="evenodd" clip-rule="evenodd" d="M59.7406 44.0724V41.8975H57.8119C57.0996 41.8975 56.8059 42.0764 56.8059 42.5709C56.8059 42.9799 57.0996 43.1707 57.6612 43.1707L56.6875 44.073H57.0996L58.0159 43.1707H59.4422V44.073H59.7406V44.0724ZM59.4422 42.9555H57.7187C57.2603 42.9555 57.1002 42.8949 57.1002 42.5709C57.1002 42.2333 57.2679 42.1138 57.6894 42.1138H59.4422V42.9555Z" fill="#201C26"/>
<path fill-rule="evenodd" clip-rule="evenodd" d="M63.6589 44.073V43.059H61.1164V44.073H60.8203V41.8975H61.1164V42.8408H63.6589V41.8975H63.9561V44.073H63.6589Z" fill="#201C26"/>
<path fill-rule="evenodd" clip-rule="evenodd" d="M68.1629 44.0724L66.6797 41.8975H66.2242L64.7422 44.0724H65.0693L65.4375 43.5268H67.4506L67.8152 44.0724H68.1629ZM67.2958 43.3045H65.5981L66.4446 42.0532L67.2958 43.3045Z" fill="#201C26"/>
<path fill-rule="evenodd" clip-rule="evenodd" d="M71.542 44.073V43.1707H70.1163L69.1953 44.073H68.7891L69.7558 43.1707C69.1953 43.1707 68.9051 42.9799 68.9051 42.5709C68.9051 42.0764 69.1953 41.8975 69.9076 41.8975H71.8404V44.0725H71.542V44.073ZM71.542 42.1144H69.7898C69.3694 42.1144 69.1953 42.2333 69.1953 42.5715C69.1953 42.8961 69.3571 42.9561 69.8179 42.9561H71.542V42.1144Z" fill="#201C26"/>
<path fill-rule="evenodd" clip-rule="evenodd" d="M77.3316 44.073H77.8516L75.781 42.9329L77.8053 41.8975H77.2806L75.4732 42.8307H74.9925V41.8975H74.6953V44.073H74.9925V43.0494H75.4856L77.3316 44.073Z" fill="#201C26"/>
<path fill-rule="evenodd" clip-rule="evenodd" d="M81.7096 43.3272C81.7096 43.7528 81.5694 43.8557 80.968 43.8557H79.7152C79.1577 43.8557 78.9496 43.7463 78.9496 43.3272V42.6329C78.9496 42.2097 79.1776 42.095 79.7152 42.095H80.968C81.539 42.095 81.7096 42.2026 81.7096 42.6329V43.3272ZM82.0033 43.3272V42.6466C82.0033 42.0141 81.6621 41.8721 80.968 41.8721H79.7181C78.905 41.8721 78.6523 42.0944 78.6523 42.6466V43.3272C78.6523 43.886 78.9408 44.0732 79.7181 44.0732H80.968C81.7289 44.0732 82.0033 43.9466 82.0033 43.3272Z" fill="#201C26"/>
<path fill-rule="evenodd" clip-rule="evenodd" d="M86.5033 41.8975H87.1406V44.073H86.8434V42.074H86.6786L85.1333 44.073H84.9815L83.4385 42.074H83.2714V44.073H82.9766V41.8975H83.6097L85.0612 43.7526L86.5033 41.8975Z" fill="#201C26"/>
<path fill-rule="evenodd" clip-rule="evenodd" d="M88.5078 44.073V42.1144H91.0438V44.073H91.3434V41.8975H88.207V44.073H88.5078Z" fill="#201C26"/>
<path fill-rule="evenodd" clip-rule="evenodd" d="M95.2027 44.0724L94.8387 43.5268H92.8255L92.4521 44.0724H92.125L93.6105 41.8975H94.0608L95.5439 44.0724H95.2027ZM93.835 42.0526L92.9827 43.3039H94.6833L93.835 42.0526Z" fill="#201C26"/>
<path fill-rule="evenodd" clip-rule="evenodd" d="M99.5213 44.073V41.8975H99.2264V42.8408H96.6875V41.8975H96.3867V44.073H96.6875V43.059H99.2264V44.073H99.5213Z" fill="#201C26"/>
<path fill-rule="evenodd" clip-rule="evenodd" d="M103.683 44.073V41.8975H103.105L100.842 43.9036H100.816V41.8975H100.523V44.073H101.005L103.273 42.0657H103.383V44.073H103.683Z" fill="#201C26"/>
<path fill-rule="evenodd" clip-rule="evenodd" d="M107.261 42.9555H105.533C105.072 42.9555 104.917 42.8949 104.917 42.5709C104.917 42.2333 105.08 42.1138 105.501 42.1138H107.261V42.9555ZM107.552 44.0724V41.8975H105.625C104.917 41.8975 104.62 42.0764 104.62 42.5709C104.62 42.9799 104.917 43.1707 105.477 43.1707L104.5 44.073H104.917L105.829 43.1707H107.261V44.073H107.552V44.0724Z" fill="#201C26"/>
<path fill-rule="evenodd" clip-rule="evenodd" d="M40.2047 47.295C40.2047 47.295 46.6509 47.207 47.1674 47.5577C47.6833 47.9037 48.1986 48.2567 48.2848 48.9504C48.3704 49.6483 47.9413 51.8239 46.3074 51.9124C44.6759 51.9992 42.7877 51.8239 42.7877 51.8239L42.7033 53.5673L40.125 53.4805L40.2047 47.295Z" fill="#201C26"/>
<path fill-rule="evenodd" clip-rule="evenodd" d="M42.8762 49.0342L42.793 50.0816C42.793 50.0816 44.853 50.5155 45.2821 50.0816C45.7118 49.6471 45.3671 48.9492 44.6818 48.9492C43.9959 48.9492 42.8762 49.0342 42.8762 49.0342Z" fill="white"/>
<path fill-rule="evenodd" clip-rule="evenodd" d="M48.2864 48.9489C48.977 48.1661 50.1787 46.9452 52.9235 47.1181C55.6735 47.2935 57.1373 48.4229 57.1373 49.7372C57.1373 51.0395 57.2188 52.7812 55.5867 53.3013C53.9564 53.8268 52.3214 53.8268 51.2058 53.6556C50.0885 53.479 48.2864 52.4317 48.0296 51.0401C47.7711 49.6462 48.2864 48.9489 48.2864 48.9489Z" fill="#241C24"/>
<path fill-rule="evenodd" clip-rule="evenodd" d="M50.8652 50.6037C50.7081 49.4784 51.6355 48.7734 52.4088 48.7734C53.1809 48.7734 54.4665 48.862 54.3815 50.3439C54.2976 51.8234 54.215 51.736 53.4423 51.9988C52.6685 52.2597 51.1214 52.5237 50.8652 50.6037Z" fill="white"/>
<path fill-rule="evenodd" clip-rule="evenodd" d="M66.3261 49.7375C65.8987 48.9493 64.9567 47.4656 63.4928 47.3818C62.0331 47.2938 60.0558 47.1184 59.1119 47.4656C58.1646 47.8175 57.3978 48.6853 57.2237 49.4694C57.0531 50.2558 56.876 51.9981 57.9957 52.7815C59.1113 53.5655 60.9199 54.1772 62.6352 53.8271C64.3499 53.4794 65.9837 52.7815 66.2417 51.3002H63.3228C63.3228 51.3002 62.5461 52.347 61.6046 52.259C61.6046 52.259 60.7399 52.5229 60.1408 51.6533C59.5428 50.7777 59.6266 49.9949 60.2264 49.2096C60.8331 48.4232 62.4617 48.6847 62.6346 49.0343C62.8052 49.3838 63.0631 49.9051 63.0631 49.9051L66.3261 49.7375Z" fill="#241C24"/>
<path fill-rule="evenodd" clip-rule="evenodd" d="M66.0672 47.4663H68.7317V49.5599H71.3902V47.2939H74.142V53.5663H71.5626V51.4757H68.8178V53.5663H65.9805L66.0672 47.4663Z" fill="#241C24"/>
<path fill-rule="evenodd" clip-rule="evenodd" d="M75.0078 47.2939L82.6529 47.3825V48.95H78.0152V49.5599H81.8814V51.3009H77.8411V52.0885H82.8235V53.741H75.0922L75.0078 47.2939Z" fill="#241C24"/>
<path fill-rule="evenodd" clip-rule="evenodd" d="M86.5968 47.2939H89.2606C89.2606 47.2939 89.0906 47.7308 89.4377 47.6447C89.7759 47.5573 92.0957 47.4657 92.7857 48.3413C93.471 49.2104 93.7307 50.3433 93.0407 51.128C92.3507 51.9126 91.7504 52.2597 91.3254 52.2597C90.8915 52.2597 89.4377 52.3471 89.4377 52.3471V53.741H86.5968V52.2597C86.5968 52.2597 84.7918 52.1724 84.1909 51.9988C83.5924 51.8234 82.4727 51.128 82.4727 49.9962C82.4727 48.8626 83.0741 47.9032 83.9365 47.8182C84.7918 47.7314 86.425 47.7314 86.425 47.7314L86.5968 47.2939Z" fill="#241C24"/>
<path fill-rule="evenodd" clip-rule="evenodd" d="M86.5997 49.2115L86.5142 50.5175C86.5142 50.5175 85.1406 50.6928 85.1406 50.1733C85.1406 49.6484 85.3997 49.1253 86.5997 49.2115Z" fill="white"/>
<path fill-rule="evenodd" clip-rule="evenodd" d="M89.4453 49.2991L89.5268 50.5188C89.5268 50.5188 90.3 50.8689 90.7327 50.2585C91.1571 49.6492 90.3845 49.2123 89.4453 49.2991Z" fill="white"/>
<path fill-rule="evenodd" clip-rule="evenodd" d="M94.8465 49.2127V53.8301H97.5947V49.2127H100.084L100.604 48.5178L99.8318 47.5596H92.6153C92.617 47.5596 92.27 48.9523 93.0426 49.0373C93.8153 49.1265 94.8465 49.2127 94.8465 49.2127Z" fill="#241C24"/>
<path fill-rule="evenodd" clip-rule="evenodd" d="M102.834 47.5596V49.2994C102.834 49.2994 106.102 49.1265 106.704 49.4724C107.305 49.8219 107.906 50.3462 107.992 50.9525C108.077 51.566 107.906 52.526 107.305 53.0461C106.704 53.5686 106.019 53.9163 105.326 53.9163H100.348V47.647L102.834 47.5596Z" fill="#241C24"/>
<path fill-rule="evenodd" clip-rule="evenodd" d="M103.102 51.1284V52.1728H104.817C105.244 52.1728 105.849 51.2152 105.074 51.0416C104.302 50.8669 103.102 51.1284 103.102 51.1284Z" fill="white"/>
<path fill-rule="evenodd" clip-rule="evenodd" d="M4.98438 18.5498H9.36764V33.6214L4.98438 29.6994V18.5498Z" fill="#241C24"/>
<path fill-rule="evenodd" clip-rule="evenodd" d="M10.2266 13.584H14.4357V38.4992L10.2266 34.3995V13.584Z" fill="#241C24"/>
<path fill-rule="evenodd" clip-rule="evenodd" d="M15.3008 8.61719H19.5967V32.2229H15.3008V8.61719Z" fill="#241C24"/>
<path fill-rule="evenodd" clip-rule="evenodd" d="M20.4492 3.65527H24.9169V27.3484H20.4492V3.65527Z" fill="#241C24"/>
<path fill-rule="evenodd" clip-rule="evenodd" d="M25.5195 8.35449H29.8166V32.2241H25.5195V8.35449Z" fill="#241C24"/>
<path fill-rule="evenodd" clip-rule="evenodd" d="M30.8477 13.4922H35.0568V34.313L30.8477 38.4989V13.4922Z" fill="#241C24"/>
<path fill-rule="evenodd" clip-rule="evenodd" d="M35.8281 18.459H40.1276V29.3494L35.8281 33.6185V18.459Z" fill="#241C24"/>
<path fill-rule="evenodd" clip-rule="evenodd" d="M15.3008 32.752H19.5967V54.6095H15.3008V32.752Z" fill="#B3B31C"/>
<path fill-rule="evenodd" clip-rule="evenodd" d="M20.4531 28.0469H24.6611V54.6086H20.4531V28.0469Z" fill="#B3B31C"/>
<path fill-rule="evenodd" clip-rule="evenodd" d="M25.5195 32.832H29.8166V54.6063H25.5195V32.832Z" fill="#B3B31C"/>
</svg>

<svg width="113" height="59" fill="none" xmlns="http://www.w3.org/2000/svg"><path fill-rule="evenodd" clip-rule="evenodd" d="M43.08 44.073v-1.014h-2.544v1.014h-.298v-2.175h.297v.943h2.545v-.944h.294v2.176h-.294zm1.291 0v-2.175h2.534v.216h-2.241v.727h2.182v.215h-2.182v.799h2.241v.218h-2.534zm7.675-.959v-.271c0-.517-.254-.778-1.056-.778h-.874v-.193h-.297v.193h-.863c-.808 0-1.062.217-1.062.778v.27c0 .554.287.746 1.062.746h.863v.214h.297v-.214h.874c.77 0 1.056-.182 1.056-.745zm-.299 0c0 .419-.2.53-.757.53h-.874v-1.361h.874c.53 0 .757.126.757.548v.283zm-1.928.53h-.863c-.559 0-.771-.111-.771-.533v-.29c0-.416.233-.538.77-.538h.864v1.36zm4.488-1.53v1.959h.296v-1.959h1.4v-.216h-3.085v.216h1.389zm5.433 1.958v-2.175h-1.928c-.712 0-1.006.18-1.006.674 0 .409.294.6.855.6l-.974.902h.413l.916-.902h1.426v.902h.299zm-.298-1.117H57.72c-.459 0-.619-.06-.619-.384 0-.338.168-.457.59-.457h1.752v.842zm4.217 1.118v-1.014h-2.543v1.014h-.296v-2.175h.296v.943h2.543v-.944h.297v2.176h-.297zm4.504-.001l-1.483-2.175h-.456l-1.482 2.175h.327l.368-.545h2.014l.364.545h.348zm-.867-.768h-1.698l.847-1.25.85 1.25zm4.246.769v-.902h-1.426l-.92.902h-.407l.967-.902c-.56 0-.85-.191-.85-.6 0-.495.29-.673 1.002-.673h1.932v2.174h-.298v.001zm0-1.959H69.79c-.42 0-.595.12-.595.458 0 .324.162.384.623.384h1.724v-.842zm5.79 1.959h.52l-2.071-1.14 2.024-1.035h-.524l-1.808.933h-.48v-.934h-.298v2.176h.298v-1.024h.493l1.846 1.024zm4.378-.746c0 .426-.14.529-.742.529h-1.253c-.557 0-.765-.11-.765-.529v-.694c0-.423.228-.538.765-.538h1.253c.571 0 .742.108.742.538v.694zm.293 0v-.68c0-.633-.34-.775-1.035-.775h-1.25c-.813 0-1.066.222-1.066.775v.68c0 .559.289.746 1.066.746h1.25c.76 0 1.035-.126 1.035-.746zm4.5-1.429h.638v2.175h-.298v-1.999h-.164l-1.546 1.999h-.151l-1.543-1.999h-.168v1.999h-.294v-2.175h.633l1.451 1.855 1.442-1.855zm2.005 2.175v-1.959h2.536v1.959h.3v-2.175h-3.137v2.175h.3zm6.695-.001l-.364-.545h-2.013l-.374.545h-.327l1.486-2.175h.45l1.483 2.175h-.341zm-1.368-2.02l-.852 1.252h1.7l-.848-1.251zm5.686 2.021v-2.175h-.295v.943h-2.538v-.944h-.301v2.176h.3v-1.014h2.54v1.014h.294zm4.162 0v-2.175h-.578l-2.263 2.006h-.026v-2.007h-.293v2.176h.482l2.268-2.007h.11v2.007h.3zm3.578-1.117h-1.728c-.461 0-.616-.061-.616-.385 0-.338.163-.457.584-.457h1.76v.842zm.291 1.116v-2.175h-1.927c-.708 0-1.005.18-1.005.674 0 .409.297.6.857.6l-.977.902h.417l.912-.902h1.432v.902h.291zm-67.347 3.223s6.446-.088 6.962.263c.516.346 1.032.699 1.118 1.392.085.698-.344 2.874-1.978 2.962-1.631.087-3.52-.088-3.52-.088l-.084 1.743-2.578-.087.08-6.185z" fill="#201C26"/><path fill-rule="evenodd" clip-rule="evenodd" d="M42.876 49.034l-.083 1.048s2.06.434 2.49 0c.429-.435.084-1.133-.601-1.133-.686 0-1.806.085-1.806.085z" fill="#fff"/><path fill-rule="evenodd" clip-rule="evenodd" d="M48.286 48.949c.691-.783 1.893-2.004 4.637-1.83 2.75.175 4.214 1.304 4.214 2.618 0 1.302.082 3.044-1.55 3.564a9.894 9.894 0 01-4.381.355c-1.117-.177-2.92-1.224-3.176-2.616-.259-1.394.256-2.091.256-2.091z" fill="#241C24"/><path fill-rule="evenodd" clip-rule="evenodd" d="M50.865 50.604c-.157-1.126.77-1.83 1.544-1.83.772 0 2.058.088 1.973 1.57-.084 1.48-.167 1.392-.94 1.655-.773.26-2.32.525-2.577-1.395z" fill="#fff"/><path fill-rule="evenodd" clip-rule="evenodd" d="M66.326 49.737c-.427-.788-1.37-2.271-2.833-2.355-1.46-.088-3.437-.264-4.381.084-.947.352-1.714 1.22-1.888 2.003-.17.787-.348 2.53.772 3.313 1.115.784 2.924 1.395 4.64 1.045 1.714-.348 3.348-1.045 3.606-2.527h-2.92s-.776 1.047-1.717.959c0 0-.865.264-1.464-.606-.598-.875-.514-1.658.085-2.443.607-.787 2.236-.525 2.409-.176.17.35.428.871.428.871l3.263-.168z" fill="#241C24"/><path fill-rule="evenodd" clip-rule="evenodd" d="M66.067 47.466h2.665v2.094h2.658v-2.266h2.752v6.272h-2.58v-2.09h-2.744v2.09H65.98l.086-6.1zm8.941-.172l7.645.089v1.567h-4.638v.61h3.866v1.74h-4.04v.789h4.983v1.652h-7.732l-.084-6.447z" fill="#241C24"/><path fill-rule="evenodd" clip-rule="evenodd" d="M86.597 47.294h2.664s-.17.437.177.35c.338-.087 2.658-.178 3.348.697.685.87.945 2.002.255 2.787-.69.785-1.29 1.132-1.716 1.132-.434 0-1.887.087-1.887.087v1.394h-2.841V52.26s-1.805-.088-2.406-.261c-.599-.176-1.718-.871-1.718-2.003 0-1.133.601-2.093 1.463-2.178.856-.087 2.489-.087 2.489-.087l.172-.437z" fill="#241C24"/><path fill-rule="evenodd" clip-rule="evenodd" d="M86.6 49.212l-.086 1.305s-1.373.176-1.373-.344c0-.525.259-1.048 1.459-.962zm2.845.088l.082 1.219s.773.35 1.206-.26c.424-.61-.349-1.047-1.288-.96z" fill="#fff"/><path fill-rule="evenodd" clip-rule="evenodd" d="M94.847 49.213v4.617h2.748v-4.617h2.489l.52-.695-.772-.958h-7.217c.002 0-.345 1.392.428 1.477.772.09 1.803.176 1.803.176z" fill="#241C24"/><path fill-rule="evenodd" clip-rule="evenodd" d="M102.834 47.56v1.74s3.268-.173 3.87.172c.601.35 1.202.874 1.288 1.48.085.614-.086 1.574-.687 2.094-.601.523-1.286.87-1.979.87h-4.978v-6.269l2.486-.087z" fill="#241C24"/><path fill-rule="evenodd" clip-rule="evenodd" d="M103.102 51.128v1.045h1.715c.427 0 1.032-.958.257-1.131-.772-.175-1.972.086-1.972.086z" fill="#fff"/><path fill-rule="evenodd" clip-rule="evenodd" d="M4.984 18.55h4.384v15.07L4.984 29.7V18.55zm5.243-4.966h4.209v24.915l-4.21-4.1V13.585zM15.3 8.617h4.297v23.606H15.3V8.617zm5.15-4.962h4.467v23.693h-4.468V3.655zm5.07 4.699h4.297v23.87H25.52V8.354zm5.328 5.138h4.209v20.821l-4.21 4.186V13.492zm4.98 4.967h4.3v10.89l-4.3 4.27v-15.16z" fill="#241C24"/><path fill-rule="evenodd" clip-rule="evenodd" d="M15.3 32.752h4.297v21.857H15.3V32.752zm5.153-4.705h4.208v26.562h-4.208V28.047zm5.067 4.785h4.297v21.774H25.52V32.832z" fill="#B3B31C"/></svg>
